X: 34565
T: Rip The Calico
R: reel
M: 4/4
K: Dmajor
|:d2dc defd|ed (3Bcd egfe|d2dc defd|efdB ~A2AB:|
|:dB~B2 gefd|ed (3Bcd egfe|dB~B2 gefd|1 efdB ~A2AB:|2 efdB A2g2||
fa~a2 gefd|ed (3Bcd egfe|fa~a2 gefd|efdB A2g2|
fa~a2 gefd|ed (3Bcd egfe|f2af bfaf|~e2ef g2fe||

